X:1
T:Samuel Young
M:3/2
L:1/4
K:C
 z2 A2 G A| c2 d3/2- c/2 A G| A2 A2 G c| c3 G c d| e2 e2 ge/2-d/2|\
 e2 e3/2- d/2 c A| G2 G2 A A| c2 d3/2- c/2 A G| A2 z4|

